svgs/thin/bring-front.svg

<svg xmlns="http://www.w3.org/2000/svg" viewBox="0 0 640 512"><!--! Font Awesome Pro 6.6.0 by @fontawesome - https://fontawesome.com License - https://fontawesome.com/license (Commercial License) Copyright 2024 Fonticons, Inc. --><path d="M64 16l128 0c26.5 0 48 21.5 48 48l16 0c0-35.3-28.7-64-64-64L64 0C28.7 0 0 28.7 0 64L0 192c0 35.3 28.7 64 64 64l64 0 0-16-64 0c-26.5 0-48-21.5-48-48L16 64c0-26.5 21.5-48 48-48zM448 512l128 0c35.3 0 64-28.7 64-64l0-128c0-35.3-28.7-64-64-64l-64 0 0 16 64 0c26.5 0 48 21.5 48 48l0 128c0 26.5-21.5 48-48 48l-128 0c-26.5 0-48-21.5-48-48l-16 0c0 35.3 28.7 64 64 64zM416 112c26.5 0 48 21.5 48 48l0 192c0 26.5-21.5 48-48 48l-192 0c-26.5 0-48-21.5-48-48l0-192c0-26.5 21.5-48 48-48l192 0zM224 96c-35.3 0-64 28.7-64 64l0 192c0 35.3 28.7 64 64 64l192 0c35.3 0 64-28.7 64-64l0-192c0-35.3-28.7-64-64-64L224 96zm32 80l128 0c8.8 0 16 7.2 16 16l0 128c0 8.8-7.2 16-16 16l-128 0c-8.8 0-16-7.2-16-16l0-128c0-8.8 7.2-16 16-16zm-32 16l0 128c0 17.7 14.3 32 32 32l128 0c17.7 0 32-14.3 32-32l0-128c0-17.7-14.3-32-32-32l-128 0c-17.7 0-32 14.3-32 32z"/></svg>

<svg xmlns="http://www.w3.org/2000/svg" viewBox="0 0 640 512"><!--! Font Awesome Pro 6.4.0 by @fontawesome - https://fontawesome.com License - https://fontawesome.com/license (Commercial License) Copyright 2023 Fonticons, Inc. --><path d="M64 16H192c26.5 0 48 21.5 48 48h16c0-35.3-28.7-64-64-64H64C28.7 0 0 28.7 0 64V192c0 35.3 28.7 64 64 64h64V240H64c-26.5 0-48-21.5-48-48V64c0-26.5 21.5-48 48-48zM448 512H576c35.3 0 64-28.7 64-64V320c0-35.3-28.7-64-64-64H512v16h64c26.5 0 48 21.5 48 48V448c0 26.5-21.5 48-48 48H448c-26.5 0-48-21.5-48-48H384c0 35.3 28.7 64 64 64zM416 112c26.5 0 48 21.5 48 48V352c0 26.5-21.5 48-48 48H224c-26.5 0-48-21.5-48-48V160c0-26.5 21.5-48 48-48H416zM224 96c-35.3 0-64 28.7-64 64V352c0 35.3 28.7 64 64 64H416c35.3 0 64-28.7 64-64V160c0-35.3-28.7-64-64-64H224zm32 80H384c8.8 0 16 7.2 16 16V320c0 8.8-7.2 16-16 16H256c-8.8 0-16-7.2-16-16V192c0-8.8 7.2-16 16-16zm-32 16V320c0 17.7 14.3 32 32 32H384c17.7 0 32-14.3 32-32V192c0-17.7-14.3-32-32-32H256c-17.7 0-32 14.3-32 32z"/></svg>
